X:7
T:O Whistle An' I'll Come to Ye my Lad
M:6/8
L:1/8
B:Chappell's One Hundred Scotch Melodies
B:Arranged for the Concertina by Carlo Minasi
Q:"Allegretto  "3/8=100
Z:Peter Dunk 2012
K:Bb
!p!(B/(c/)|d<B)G (FED)|(Ccc) c2 B/(c/|\
d<B)G FDF| L([GE][BD])[BD] [B2D2] (B/c/)|\
(dBG) (F>ED)|(Ced) (Hcf>e)|
%
(dBG) (FDF)|L([GE][BD])[BD] [B2D2]||\
(d/c/)|.B.d.f .B.d.f|.B.d.f Lf2 (d/c/)|\
.B.d.f .B.d.f|(g[cA])[cA] [c2A2](d/c/)|
%
.B.d.f .B.d.f|BB[ge] L([g2e2] [f/d/][e/c/])|\
([dB]BG) (FED)|(Cc)c c H([fd]>[ec])|\
([dB]BG) (FDF)|L([GE][BD])[BD] [B2D2]|

